icons/mimetypes/64/message-partial.svg

<?xml version="1.0" encoding="UTF-8" standalone="no"?>
<svg
   xmlns:dc="http://purl.org/dc/elements/1.1/"
   xmlns:cc="http://creativecommons.org/ns#"
   xmlns:rdf="http://www.w3.org/1999/02/22-rdf-syntax-ns#"
   xmlns:svg="http://www.w3.org/2000/svg"
   xmlns="http://www.w3.org/2000/svg"
   xmlns:xlink="http://www.w3.org/1999/xlink"
   xmlns:sodipodi="http://sodipodi.sourceforge.net/DTD/sodipodi-0.dtd"
   xmlns:inkscape="http://www.inkscape.org/namespaces/inkscape"
   width="64"
   version="1.1"
   viewBox="0 0 64 64"
   height="64"
   id="svg26"
   inkscape:version="0.91 r13725"
   sodipodi:docname="message-partial.svg">
  <sodipodi:namedview
     pagecolor="#ffffff"
     bordercolor="#666666"
     borderopacity="1"
     objecttolerance="10"
     gridtolerance="10"
     guidetolerance="10"
     inkscape:pageopacity="0"
     inkscape:pageshadow="2"
     inkscape:window-width="1920"
     inkscape:window-height="1006"
     id="namedview49"
     showgrid="false"
     inkscape:zoom="5.2149125"
     inkscape:cx="48.441686"
     inkscape:cy="19.235435"
     inkscape:window-x="0"
     inkscape:window-y="0"
     inkscape:window-maximized="1"
     inkscape:current-layer="svg26" />
  <defs
     id="defs4">
    <linearGradient
       inkscape:collect="always"
       xlink:href="#linearGradient9654"
       id="linearGradient5121"
       gradientUnits="userSpaceOnUse"
       x1="40"
       y1="17"
       x2="54"
       y2="31" />
    <linearGradient
       id="linearGradient9654"
       inkscape:collect="always">
      <stop
         id="stop9656"
         offset="0"
         style="stop-color:#060606;stop-opacity:1" />
      <stop
         id="stop9658"
         offset="1"
         style="stop-color:#000000;stop-opacity:0" />
    </linearGradient>
    <linearGradient
       inkscape:collect="always"
       xlink:href="#linearGradient6251"
       id="linearGradient5123"
       gradientUnits="userSpaceOnUse"
       gradientTransform="translate(-48,-332.3622)"
       x1="58"
       y1="392.36221"
       x2="58"
       y2="336.36221" />
    <linearGradient
       id="linearGradient6251"
       inkscape:collect="always">
      <stop
         id="stop6253"
         offset="0"
         style="stop-color:#ffffff;stop-opacity:0" />
      <stop
         id="stop6255"
         offset="1"
         style="stop-color:#ffffff;stop-opacity:0.2" />
    </linearGradient>
  </defs>
  <metadata
     id="metadata84">
    <rdf:RDF>
      <cc:Work
         rdf:about="">
        <dc:format>image/svg+xml</dc:format>
        <dc:type
           rdf:resource="http://purl.org/dc/dcmitype/StillImage" />
      </cc:Work>
    </rdf:RDF>
  </metadata>
  <path
     d="m 10,61 0,-57.9999996 30,0 L 53.99999,17 l 0,30 0,14 L 40,61 10,61 Z"
     id="path7238-2"
     style="fill:#f6265b;fill-opacity:1"
     inkscape:connector-curvature="0"
     inkscape:export-xdpi="96"
     inkscape:export-ydpi="96" />
  <rect
     transform="scale(1,-1)"
     id="rect7240-6"
     style="color:#000000;clip-rule:nonzero;display:inline;overflow:visible;visibility:visible;opacity:0.5;isolation:auto;mix-blend-mode:normal;color-interpolation:sRGB;color-interpolation-filters:linearRGB;solid-color:#000000;solid-opacity:1;fill:#ffffff;fill-opacity:1;fill-rule:nonzero;stroke-width:1;stroke-linecap:butt;stroke-linejoin:miter;stroke-miterlimit:4;stroke-dasharray:none;stroke-dashoffset:0;stroke-opacity:1;color-rendering:auto;image-rendering:auto;shape-rendering:auto;text-rendering:auto;enable-background:accumulate"
     height="1"
     y="-3.999963"
     x="10"
     width="30"
     inkscape:export-xdpi="96"
     inkscape:export-ydpi="96" />
  <rect
     transform="scale(1,-1)"
     id="rect7242-1"
     style="color:#000000;clip-rule:nonzero;display:inline;overflow:visible;visibility:visible;opacity:0.25;isolation:auto;mix-blend-mode:normal;color-interpolation:sRGB;color-interpolation-filters:linearRGB;solid-color:#000000;solid-opacity:1;fill:#000000;fill-opacity:1;fill-rule:nonzero;stroke-width:1;stroke-linecap:butt;stroke-linejoin:miter;stroke-miterlimit:4;stroke-dasharray:none;stroke-dashoffset:0;stroke-opacity:1;color-rendering:auto;image-rendering:auto;shape-rendering:auto;text-rendering:auto;enable-background:accumulate"
     height="1"
     y="-60.999962"
     x="10"
     width="44"
     inkscape:export-xdpi="96"
     inkscape:export-ydpi="96" />
  <path
     d="M 53.99999,17 40,3.0000004 40,17 Z"
     id="path7244-8"
     style="color:#000000;clip-rule:nonzero;display:inline;overflow:visible;visibility:visible;opacity:0.75;isolation:auto;mix-blend-mode:normal;color-interpolation:sRGB;color-interpolation-filters:linearRGB;solid-color:#000000;solid-opacity:1;fill:#fffcf9;fill-opacity:1;fill-rule:nonzero;stroke-width:1;stroke-linecap:butt;stroke-linejoin:miter;stroke-miterlimit:4;stroke-dasharray:none;stroke-dashoffset:0;stroke-opacity:1;color-rendering:auto;image-rendering:auto;shape-rendering:auto;text-rendering:auto;enable-background:accumulate"
     inkscape:connector-curvature="0"
     inkscape:export-xdpi="96"
     inkscape:export-ydpi="96" />
  <path
     inkscape:connector-curvature="0"
     style="opacity:0.2;fill:url(#linearGradient5121);fill-rule:evenodd"
     id="path7584-7"
     d="m 40,17 13.99999,14 0,-14 z"
     inkscape:export-xdpi="96"
     inkscape:export-ydpi="96" />
  <path
     style="color:#000000;color-interpolation:sRGB;color-interpolation-filters:linearRGB;fill:#fffcf9;fill-opacity:1;color-rendering:auto;image-rendering:auto;shape-rendering:auto;text-rendering:auto"
     id="rect4167"
     d="m 18,22 0,22 5.5,0 0.5,-1 -5,0 0,-0.585938 9.707031,-9.707031 L 29,33 29.470703,32.056641 20.414062,23 34,23 34.5,22 18,22 Z m 22.5,0 -0.5,1 3.585938,0 -7.169922,7.169922 -1.414063,2.828125 0.291016,-0.291016 L 45,42.414062 45,43 30,43 29.5,44 46,44 46,22 40.5,22 Z m -21.5,1 9,9 -9,9 0,-18 z m 26,0 0,18 -9,-9 9,-9 z"
     inkscape:connector-curvature="0" />
  <path
     inkscape:connector-curvature="0"
     style="fill:url(#linearGradient5123);fill-opacity:1"
     id="path7586-2"
     d="m 10,61 0,-57.9999996 30,0 L 53.99999,17 l 0,30 0,14 L 40,61 10,61 Z"
     inkscape:export-xdpi="96"
     inkscape:export-ydpi="96" />
</svg>

<svg width="64" xmlns="http://www.w3.org/2000/svg" viewBox="0 0 64 64" height="64" xmlns:xlink="http://www.w3.org/1999/xlink">
 <defs>
  <linearGradient id="a" y1="17" x1="40" y2="31" gradientUnits="userSpaceOnUse" x2="54">
   <stop stop-color="#060606"/>
   <stop offset="1" stop-opacity="0"/>
  </linearGradient>
  <linearGradient id="b" y1="392.36" y2="336.36" gradientUnits="userSpaceOnUse" x2="0" gradientTransform="translate(-48-332.36)">
   <stop stop-color="#ffffff" stop-opacity="0"/>
   <stop offset="1" stop-color="#ffffff" stop-opacity=".2"/>
  </linearGradient>
  <path id="c" d="m10 61v-58h30l14 14v44h-14z"/>
 </defs>
 <use fill="#f6265b" xlink:href="#c"/>
 <g color-rendering="auto" color-interpolation-filters="linearRGB" shape-rendering="auto" image-rendering="auto" text-rendering="auto" color-interpolation="sRGB" color="#000000">
  <g transform="scale(1-1)">
   <rect opacity=".5" x="10" y="-4" width="30" fill="#ffffff" height="1"/>
   <rect opacity=".25" x="10" y="-61" width="44" height="1"/>
  </g>
  <path opacity=".75" fill="#fffcf9" d="m54 17l-14-14v14z"/>
 </g>
 <path opacity=".2" fill="url(#a)" fill-rule="evenodd" d="m40 17l14 14v-14z"/>
 <path fill="#fffcf9" color-rendering="auto" color-interpolation-filters="linearRGB" shape-rendering="auto" image-rendering="auto" text-rendering="auto" color-interpolation="sRGB" color="#000000" d="m18 22v22h5.5l.5-1h-5v-.586l9.707-9.707.293.293.471-.943-9.06-9.06h13.586l.5-1zm22.5 0l-.5 1h3.586l-7.17 7.17-1.414 2.828.291-.291 9.707 9.707v.586h-15l-.5 1h16.5v-22zm-21.5 1l9 9-9 9zm26 0v18l-9-9z"/>
 <use fill="url(#b)" xlink:href="#c"/>
</svg>
